www/assets/icons/roller_shades_closed.svg

<svg width="24" height="24" viewBox="0 0 24 24" xmlns="http://www.w3.org/2000/svg" fill='currentColor'><path d="M20 18.125V2.125H4V18.125H2V20.125H10.25C10.25 21.095 11.03 21.875 12 21.875C12.97 21.875 13.75 21.095 13.75 20.125H22V18.125H20ZM6 18.125V16.125H11V18.125H6ZM13 18.125V16.125H18V18.125H13Z"/></svg>

<svg xmlns="http://www.w3.org/2000/svg" width="24" height="24" viewBox="0 0 24 24" fill='currentColor'><path d="M20 18.125v-16H4v16H2v2h8.25c0 .97.78 1.75 1.75 1.75s1.75-.78 1.75-1.75H22v-2zm-14 0v-2h5v2zm7 0v-2h5v2z"/></svg>
